Newaita-dark/apps/64/com.github.tkashkin.boiler.svg

<svg height="64" viewBox="0 0 64 64" width="64" xmlns="http://www.w3.org/2000/svg" xmlns:xlink="http://www.w3.org/1999/xlink"><linearGradient id="a"><stop offset="0" stop-opacity=".313726"/><stop offset=".222222" stop-opacity=".27451"/><stop offset="1" stop-opacity="0"/></linearGradient><radialGradient id="b" cx="450.908936" cy="189.579361" gradientTransform="matrix(.00000035 -.156265 -.281277 -.0000002 89.046304 127.190659)" gradientUnits="userSpaceOnUse" r="21.166656" xlink:href="#a"/><radialGradient id="c" cx="450.908936" cy="189.579361" gradientTransform="matrix(-.00000035 .156265 .281277 .0000002 -25.540237 -15.054964)" gradientUnits="userSpaceOnUse" r="21.166656" xlink:href="#a"/><radialGradient id="d" cx="450.908936" cy="189.579361" gradientTransform="matrix(-.00000035 -.156265 .281277 -.0000002 -25.540237 127.190659)" gradientUnits="userSpaceOnUse" r="21.166656" xlink:href="#a"/><radialGradient id="e" cx="450.908936" cy="189.579361" gradientTransform="matrix(.00000035 .156265 -.281277 .0000002 89.0463 -15.054965)" gradientUnits="userSpaceOnUse" r="21.166656" xlink:href="#a"/><linearGradient id="f" gradientTransform="matrix(.0267201 0 0 .125012 24.930772 26.877567)" gradientUnits="userSpaceOnUse" x1="255.323059" x2="255.323044" y1="233.5" y2="254.666656"><stop offset="0" stop-opacity=".27451"/><stop offset="1" stop-opacity="0"/></linearGradient><linearGradient id="g" gradientUnits="userSpaceOnUse" x1="37.04522400013" x2="37.04522400013" y1="56.067868" y2="5.79220799994"><stop offset="0" stop-color="#ab47bc"/><stop offset="1" stop-color="#ba68c8"/></linearGradient><linearGradient id="h" gradientUnits="userSpaceOnUse" x1="31.753048" x2="31.753048" y1="56.067868" y2="5.79221000013"><stop offset="0" stop-color="#bdbdbd"/><stop offset="1" stop-color="#e0e0e0"/></linearGradient><path d="m36.382812 56.066406h5.292969v-2.644531h-5.292969zm0 0" fill="url(#b)"/><path d="m27.121094 56.066406h-5.289063v2.648438h5.289063zm0 0" fill="url(#c)"/><path d="m27.121094 56.066406h-5.289063v-2.644531h5.289063zm0 0" fill="url(#d)"/><path d="m36.382812 56.066406h5.292969v2.648438h-5.292969zm0 0" fill="url(#e)"/><path d="m27.121094 55.40625h9.261718v3.308594h-9.261718zm0 0" fill="url(#f)"/><path d="m31.753906 5.792969c13.882813 0 25.136719 11.253906 25.136719 25.136719 0 13.882812-11.253906 25.136718-25.136719 25.136718-13.882812 0-25.140625-11.253906-25.140625-25.136718 0-13.882813 11.257813-25.136719 25.140625-25.136719zm0 0" fill="url(#g)"/><path d="m31.753906 56.066406c-13.925781 0-25.140625-11.210937-25.140625-25.136718 0-.082032.003907-.164063.003907-.246094.128906 13.8125 11.292968 24.890625 25.136718 24.890625s25.003906-11.078125 25.136719-24.890625v.246094c0 13.925781-11.210937 25.136718-25.136719 25.136718zm0 0" fill-opacity=".196078"/><path d="m31.753906 5.792969c-13.925781 0-25.140625 11.210937-25.140625 25.136719 0 .082031.003907.164062.003907.246093.128906-13.8125 11.292968-24.890625 25.136718-24.890625s25.003906 11.078125 25.136719 24.890625c0-.082031 0-.164062 0-.246093 0-13.925782-11.210937-25.136719-25.136719-25.136719zm0 0" fill="#fff" fill-opacity=".392157"/><path d="m31.753906 5.605469c-14.027344 0-25.328125 11.296875-25.328125 25.324219 0 14.027343 11.300781 25.324218 25.328125 25.324218s25.324219-11.296875 25.324219-25.324218c0-14.027344-11.296875-25.324219-25.324219-25.324219zm0 .375c13.824219 0 24.949219 11.125 24.949219 24.949219 0 13.824218-11.125 24.949218-24.949219 24.949218-13.828125 0-24.953125-11.125-24.953125-24.949218 0-13.824219 11.125-24.949219 24.953125-24.949219zm0 0" fill="#212121"/><path d="m42.582031 26.230469c-.042969 2.042969.179688 4.25-.828125 6.109375-.691406 1.15625-1.796875 1.996094-2.972656 2.617187.15625 2.589844.210938 6.289063-1.277344 7.96875-.789062.902344-1.78125 1.398438-3.539062 1.511719-2.675782.136719-5.414063.265625-8.046875-.367188-1.253907-.367187-2.867188-.71875-3.277344-2.164062-.617187-1.234375-.296875-2.632812-.40625-3.960938-.097656-5.527343.734375-11.019531 1.65625-16.453124-.367187-.371094-2.152344.175781-2.152344-1.148438 0-1.320312 3.074219-2.753906 4.679688-2.851562 2.539062-.550782 5.183593-.335938 7.730469.019531 1.449218.570312 2.996093.21875 4.472656.515625 4.042968 1.441406 3.933594 4.582031 3.960937 8.203125zm-2.890625 2.167969c-.09375-2.097657.203125-3.980469-.628906-5.785157-.78125-1.171875-2.109375-1.605469-1.550781.769531.433593 2.84375.648437 5.71875.914062 8.582032 1.25-.707032 1.160157-2.335938 1.265625-3.566406zm0 0" fill="url(#h)"/><path d="m29.792969 17.15625c-1.132813 0-2.265625.09375-3.375.335938-1.605469.097656-4.679688 1.53125-4.679688 2.851562 0 .183594.03125.328125.089844.445312.519531-1.195312 3.148437-2.363281 4.589844-2.449218 2.539062-.550782 5.183593-.335938 7.730469.019531 1.449218.570313 2.996093.21875 4.472656.519531 3.828125 1.363282 3.933594 4.25 3.957031 7.625 0-.089844 0-.183594.003906-.273437-.027343-3.621094.082031-6.761719-3.960937-8.203125-1.476563-.296875-3.023438.054687-4.472656-.515625-1.433594-.199219-2.898438-.355469-4.355469-.355469zm-6.03125 5.105469c-.84375 5.035156-1.578125 10.121093-1.53125 15.238281.039062-5.089844.808593-10.148438 1.660156-15.160156-.03125-.03125-.078125-.058594-.128906-.078125zm13.65625.640625c-.070313.273437-.054688.703125.09375 1.328125.433593 2.847656.648437 5.71875.914062 8.582031 1.25-.707031 1.160157-2.335938 1.265625-3.566406-.007812-.210938-.015625-.417969-.015625-.625-.082031 1.195312-.074219 2.679687-1.25 3.34375-.265625-2.863282-.480469-5.738282-.914062-8.582032-.042969-.175781-.070313-.335937-.09375-.480468zm2.253906 4.035156v.640625c0-.214844 0-.429687 0-.640625zm2.902344.578125v.46875c0-.15625 0-.3125 0-.46875zm-3.75 8.265625c-.011719.007812-.027344.015625-.042969.023438.035156.558593.0625 1.171874.074219 1.804687.007812-.625-.003907-1.242187-.03125-1.828125zm-16.570313 3.359375c-.007812.332031-.011718.664063-.003906.992187.007812-.332031.015625-.664062.003906-.992187zm0 0" fill="#fff"/><path d="m21.871094 20.804688c-.085938.164062-.132813.328124-.132813.492187 0 1.1875 1.4375.867187 2 1.058594.050781-.308594.101563-.613281.152344-.921875-.308594-.308594-1.601563.023437-2.019531-.628906zm15.984375.804687c-.359375-.011719-.585938.359375-.421875 1.339844.222656-.691407 1.070312-.230469 1.628906.613281.511719 1.109375.597656 2.25.609375 3.453125.003906-1.578125.046875-3.042969-.609375-4.460937-.363281-.546876-.851562-.933594-1.207031-.945313zm4.722656 4.890625c-.003906.351562-.003906.707031-.003906 1.0625.003906-.128906.003906-.253906.007812-.382812-.003906-.226563-.003906-.453126-.003906-.679688zm-2.90625 1.074219c0 .335937-.003906.675781 0 1.019531.007813-.085938.011719-.167969.019531-.25-.011718-.261719-.015625-.515625-.019531-.769531zm2.902344.390625c-.007813 1.492187-.101563 2.992187-.820313 4.316406-.691406 1.15625-1.796875 1.996094-2.972656 2.617188.019531.3125.039062.640624.050781.980468 1.15625-.621094 2.242188-1.449218 2.921875-2.589844.878906-1.625.824219-3.511718.820313-5.324218zm-20.34375 9.539062c-.003907.464844-.003907.925782.003906 1.390625.007813.097657.015625.195313.019531.296875.007813-.4375.015625-.875-.019531-1.304687-.003906-.125-.003906-.253907-.003906-.382813zm16.621093.125c-.039062 2.023438-.335937 4.097656-1.347656 5.242188-.898437 1.039062-2.199218 1.636718-3.535156 1.511718-2.679688.132813-5.417969.265626-8.050781-.371093-1.253907-.367188-2.867188-.71875-3.277344-2.160157-.273437-.550781-.363281-1.132812-.386719-1.722656-.019531.933594-.042968 1.871094.386719 2.730469.410156 1.441406 2.023437 1.792969 3.277344 2.160156 2.632812.636719 5.371093.503907 8.050781.367188 1.421875-.070313 2.628906-.492188 3.535156-1.511719 1.179688-1.332031 1.390625-3.933594 1.347656-6.246094zm0 0" fill-opacity=".235294"/><path d="m340.623722-5.176287c-.343717 16.342189 1.437363 33.996753-6.624367 48.870333-5.530722 9.249117-14.373628 15.967225-23.77898 20.935501 1.249881 20.716771 1.687339 50.307696-10.217774 63.743912-6.311897 7.218061-14.248639 11.186432-28.309796 12.092596-21.404206 1.093645-43.308365 2.124797-64.368853-2.93722-10.030293-2.937219-22.93531-5.749451-26.216247-17.310847-4.937028-9.874057-2.374773-21.060489-3.24969-31.684474-.781175-44.214528 5.874439-88.147832 13.248735-131.612432-2.937219-2.968466-17.217106 1.406116-17.217106-9.186622 0-10.561492 24.591402-22.029147 37.433926-22.810322 20.31056-4.405829 41.46479-2.687243 61.837844.156235 11.592643 4.562064 23.966462 1.749833 35.777834 4.124606 32.340661 11.530149 31.465745 36.65275 31.684474 65.618734zm-23.122792 17.342094c-.749928-16.779648 1.624845-31.84071-5.030769-46.276831-6.249404-9.374105-16.873389-12.842524-12.405066 6.155662 3.468419 22.747828 5.187005 45.745632 7.311802 68.649694 9.999045-5.655709 9.280364-18.685715 10.124033-28.528525zm0 0" fill="none" stroke="#212121" stroke-width="3" transform="matrix(.125012 0 0 .125012 0 26.877566)"/></svg>

<?xml version="1.0" encoding="UTF-8"?>
<svg xmlns="http://www.w3.org/2000/svg" xmlns:xlink="http://www.w3.org/1999/xlink" width="64px" height="64px" viewBox="0 0 64 64" version="1.1">
<defs>
<radialGradient id="radial0" gradientUnits="userSpaceOnUse" cx="450.908936" cy="189.579361" fx="450.908936" fy="189.579361" r="21.166656" gradientTransform="matrix(0.000000348341,-0.156265,-0.281277,-0.000000203077,89.046304,127.190659)">
<stop offset="0" style="stop-color:rgb(0%,0%,0%);stop-opacity:0.313726;"/>
<stop offset="0.222222" style="stop-color:rgb(0%,0%,0%);stop-opacity:0.27451;"/>
<stop offset="1" style="stop-color:rgb(0%,0%,0%);stop-opacity:0;"/>
</radialGradient>
<radialGradient id="radial1" gradientUnits="userSpaceOnUse" cx="450.908936" cy="189.579361" fx="450.908936" fy="189.579361" r="21.166656" gradientTransform="matrix(-0.000000348341,0.156265,0.281277,0.000000203077,-25.540237,-15.054964)">
<stop offset="0" style="stop-color:rgb(0%,0%,0%);stop-opacity:0.313726;"/>
<stop offset="0.222222" style="stop-color:rgb(0%,0%,0%);stop-opacity:0.27451;"/>
<stop offset="1" style="stop-color:rgb(0%,0%,0%);stop-opacity:0;"/>
</radialGradient>
<radialGradient id="radial2" gradientUnits="userSpaceOnUse" cx="450.908936" cy="189.579361" fx="450.908936" fy="189.579361" r="21.166656" gradientTransform="matrix(-0.000000348341,-0.156265,0.281277,-0.000000203077,-25.540237,127.190659)">
<stop offset="0" style="stop-color:rgb(0%,0%,0%);stop-opacity:0.313726;"/>
<stop offset="0.222222" style="stop-color:rgb(0%,0%,0%);stop-opacity:0.27451;"/>
<stop offset="1" style="stop-color:rgb(0%,0%,0%);stop-opacity:0;"/>
</radialGradient>
<radialGradient id="radial3" gradientUnits="userSpaceOnUse" cx="450.908936" cy="189.579361" fx="450.908936" fy="189.579361" r="21.166656" gradientTransform="matrix(0.000000348341,0.156265,-0.281277,0.000000203077,89.0463,-15.054965)">
<stop offset="0" style="stop-color:rgb(0%,0%,0%);stop-opacity:0.313726;"/>
<stop offset="0.222222" style="stop-color:rgb(0%,0%,0%);stop-opacity:0.27451;"/>
<stop offset="1" style="stop-color:rgb(0%,0%,0%);stop-opacity:0;"/>
</radialGradient>
<linearGradient id="linear0" gradientUnits="userSpaceOnUse" x1="255.323059" y1="233.5" x2="255.323044" y2="254.666656" gradientTransform="matrix(0.0267201,0,0,0.125012,24.930772,26.877567)">
<stop offset="0" style="stop-color:rgb(0%,0%,0%);stop-opacity:0.27451;"/>
<stop offset="1" style="stop-color:rgb(0%,0%,0%);stop-opacity:0;"/>
</linearGradient>
<linearGradient id="linear1" gradientUnits="userSpaceOnUse" x1="296.333344" y1="233.5" x2="296.333344" y2="-168.666672" gradientTransform="matrix(0.125012,0,0,0.125012,0,26.877566)">
<stop offset="0" style="stop-color:rgb(67.058825%,27.843139%,73.725492%);stop-opacity:1;"/>
<stop offset="1" style="stop-color:rgb(72.941178%,40.784314%,78.431374%);stop-opacity:1;"/>
</linearGradient>
<linearGradient id="linear2" gradientUnits="userSpaceOnUse" x1="254" y1="233.5" x2="254" y2="-168.666656" gradientTransform="matrix(0.125012,0,0,0.125012,0,26.877566)">
<stop offset="0" style="stop-color:rgb(74.117649%,74.117649%,74.117649%);stop-opacity:1;"/>
<stop offset="1" style="stop-color:rgb(87.843138%,87.843138%,87.843138%);stop-opacity:1;"/>
</linearGradient>
</defs>
<g id="surface1">
<path style=" stroke:none;fill-rule:nonzero;fill:url(#radial0);" d="M 36.382812 56.066406 L 41.675781 56.066406 L 41.675781 53.421875 L 36.382812 53.421875 Z M 36.382812 56.066406 "/>
<path style=" stroke:none;fill-rule:nonzero;fill:url(#radial1);" d="M 27.121094 56.066406 L 21.832031 56.066406 L 21.832031 58.714844 L 27.121094 58.714844 Z M 27.121094 56.066406 "/>
<path style=" stroke:none;fill-rule:nonzero;fill:url(#radial2);" d="M 27.121094 56.066406 L 21.832031 56.066406 L 21.832031 53.421875 L 27.121094 53.421875 Z M 27.121094 56.066406 "/>
<path style=" stroke:none;fill-rule:nonzero;fill:url(#radial3);" d="M 36.382812 56.066406 L 41.675781 56.066406 L 41.675781 58.714844 L 36.382812 58.714844 Z M 36.382812 56.066406 "/>
<path style=" stroke:none;fill-rule:nonzero;fill:url(#linear0);" d="M 27.121094 55.40625 L 36.382812 55.40625 L 36.382812 58.714844 L 27.121094 58.714844 Z M 27.121094 55.40625 "/>
<path style=" stroke:none;fill-rule:nonzero;fill:url(#linear1);" d="M 31.753906 5.792969 C 45.636719 5.792969 56.890625 17.046875 56.890625 30.929688 C 56.890625 44.8125 45.636719 56.066406 31.753906 56.066406 C 17.871094 56.066406 6.613281 44.8125 6.613281 30.929688 C 6.613281 17.046875 17.871094 5.792969 31.753906 5.792969 Z M 31.753906 5.792969 "/>
<path style=" stroke:none;fill-rule:nonzero;fill:rgb(0%,0%,0%);fill-opacity:0.196078;" d="M 31.753906 56.066406 C 17.828125 56.066406 6.613281 44.855469 6.613281 30.929688 C 6.613281 30.847656 6.617188 30.765625 6.617188 30.683594 C 6.746094 44.496094 17.910156 55.574219 31.753906 55.574219 C 45.597656 55.574219 56.757812 44.496094 56.890625 30.683594 C 56.890625 30.765625 56.890625 30.847656 56.890625 30.929688 C 56.890625 44.855469 45.679688 56.066406 31.753906 56.066406 Z M 31.753906 56.066406 "/>
<path style=" stroke:none;fill-rule:nonzero;fill:rgb(100%,100%,100%);fill-opacity:0.392157;" d="M 31.753906 5.792969 C 17.828125 5.792969 6.613281 17.003906 6.613281 30.929688 C 6.613281 31.011719 6.617188 31.09375 6.617188 31.175781 C 6.746094 17.363281 17.910156 6.285156 31.753906 6.285156 C 45.597656 6.285156 56.757812 17.363281 56.890625 31.175781 C 56.890625 31.09375 56.890625 31.011719 56.890625 30.929688 C 56.890625 17.003906 45.679688 5.792969 31.753906 5.792969 Z M 31.753906 5.792969 "/>
<path style=" stroke:none;fill-rule:nonzero;fill:rgb(12.941177%,12.941177%,12.941177%);fill-opacity:1;" d="M 31.753906 5.605469 C 17.726562 5.605469 6.425781 16.902344 6.425781 30.929688 C 6.425781 44.957031 17.726562 56.253906 31.753906 56.253906 C 45.78125 56.253906 57.078125 44.957031 57.078125 30.929688 C 57.078125 16.902344 45.78125 5.605469 31.753906 5.605469 Z M 31.753906 5.980469 C 45.578125 5.980469 56.703125 17.105469 56.703125 30.929688 C 56.703125 44.753906 45.578125 55.878906 31.753906 55.878906 C 17.925781 55.878906 6.800781 44.753906 6.800781 30.929688 C 6.800781 17.105469 17.925781 5.980469 31.753906 5.980469 Z M 31.753906 5.980469 "/>
<path style=" stroke:none;fill-rule:nonzero;fill:url(#linear2);" d="M 42.582031 26.230469 C 42.539062 28.273438 42.761719 30.480469 41.753906 32.339844 C 41.0625 33.496094 39.957031 34.335938 38.78125 34.957031 C 38.9375 37.546875 38.992188 41.246094 37.503906 42.925781 C 36.714844 43.828125 35.722656 44.324219 33.964844 44.4375 C 31.289062 44.574219 28.550781 44.703125 25.917969 44.070312 C 24.664062 43.703125 23.050781 43.351562 22.640625 41.90625 C 22.023438 40.671875 22.34375 39.273438 22.234375 37.945312 C 22.136719 32.417969 22.96875 26.925781 23.890625 21.492188 C 23.523438 21.121094 21.738281 21.667969 21.738281 20.34375 C 21.738281 19.023438 24.8125 17.589844 26.417969 17.492188 C 28.957031 16.941406 31.601562 17.15625 34.148438 17.511719 C 35.597656 18.082031 37.144531 17.730469 38.621094 18.027344 C 42.664062 19.46875 42.554688 22.609375 42.582031 26.230469 Z M 39.691406 28.398438 C 39.597656 26.300781 39.894531 24.417969 39.0625 22.613281 C 38.28125 21.441406 36.953125 21.007812 37.511719 23.382812 C 37.945312 26.226562 38.160156 29.101562 38.425781 31.964844 C 39.675781 31.257812 39.585938 29.628906 39.691406 28.398438 Z M 39.691406 28.398438 "/>
<path style=" stroke:none;fill-rule:nonzero;fill:rgb(100%,100%,100%);fill-opacity:1;" d="M 29.792969 17.15625 C 28.660156 17.15625 27.527344 17.25 26.417969 17.492188 C 24.8125 17.589844 21.738281 19.023438 21.738281 20.34375 C 21.738281 20.527344 21.769531 20.671875 21.828125 20.789062 C 22.347656 19.59375 24.976562 18.425781 26.417969 18.339844 C 28.957031 17.789062 31.601562 18.003906 34.148438 18.359375 C 35.597656 18.929688 37.144531 18.578125 38.621094 18.878906 C 42.449219 20.242188 42.554688 23.128906 42.578125 26.503906 C 42.578125 26.414062 42.578125 26.320312 42.582031 26.230469 C 42.554688 22.609375 42.664062 19.46875 38.621094 18.027344 C 37.144531 17.730469 35.597656 18.082031 34.148438 17.511719 C 32.714844 17.3125 31.25 17.15625 29.792969 17.15625 Z M 23.761719 22.261719 C 22.917969 27.296875 22.183594 32.382812 22.230469 37.5 C 22.269531 32.410156 23.039062 27.351562 23.890625 22.339844 C 23.859375 22.308594 23.8125 22.28125 23.761719 22.261719 Z M 37.417969 22.902344 C 37.347656 23.175781 37.363281 23.605469 37.511719 24.230469 C 37.945312 27.078125 38.160156 29.949219 38.425781 32.8125 C 39.675781 32.105469 39.585938 30.476562 39.691406 29.246094 C 39.683594 29.035156 39.675781 28.828125 39.675781 28.621094 C 39.59375 29.816406 39.601562 31.300781 38.425781 31.964844 C 38.160156 29.101562 37.945312 26.226562 37.511719 23.382812 C 37.46875 23.207031 37.441406 23.046875 37.417969 22.902344 Z M 39.671875 26.9375 C 39.671875 27.148438 39.671875 27.363281 39.671875 27.578125 C 39.671875 27.363281 39.671875 27.148438 39.671875 26.9375 Z M 42.574219 27.515625 C 42.574219 27.671875 42.574219 27.828125 42.574219 27.984375 C 42.574219 27.828125 42.574219 27.671875 42.574219 27.515625 Z M 38.824219 35.78125 C 38.8125 35.789062 38.796875 35.796875 38.78125 35.804688 C 38.816406 36.363281 38.84375 36.976562 38.855469 37.609375 C 38.863281 36.984375 38.851562 36.367188 38.824219 35.78125 Z M 22.253906 39.140625 C 22.246094 39.472656 22.242188 39.804688 22.25 40.132812 C 22.257812 39.800781 22.265625 39.46875 22.253906 39.140625 Z M 22.253906 39.140625 "/>
<path style=" stroke:none;fill-rule:nonzero;fill:rgb(0%,0%,0%);fill-opacity:0.235294;" d="M 21.871094 20.804688 C 21.785156 20.96875 21.738281 21.132812 21.738281 21.296875 C 21.738281 22.484375 23.175781 22.164062 23.738281 22.355469 C 23.789062 22.046875 23.839844 21.742188 23.890625 21.433594 C 23.582031 21.125 22.289062 21.457031 21.871094 20.804688 Z M 37.855469 21.609375 C 37.496094 21.597656 37.269531 21.96875 37.433594 22.949219 C 37.65625 22.257812 38.503906 22.71875 39.0625 23.5625 C 39.574219 24.671875 39.660156 25.8125 39.671875 27.015625 C 39.675781 25.4375 39.71875 23.972656 39.0625 22.554688 C 38.699219 22.007812 38.210938 21.621094 37.855469 21.609375 Z M 42.578125 26.5 C 42.574219 26.851562 42.574219 27.207031 42.574219 27.5625 C 42.578125 27.433594 42.578125 27.308594 42.582031 27.179688 C 42.578125 26.953125 42.578125 26.726562 42.578125 26.5 Z M 39.671875 27.574219 C 39.671875 27.910156 39.667969 28.25 39.671875 28.59375 C 39.679688 28.507812 39.683594 28.425781 39.691406 28.34375 C 39.679688 28.082031 39.675781 27.828125 39.671875 27.574219 Z M 42.574219 27.964844 C 42.566406 29.457031 42.472656 30.957031 41.753906 32.28125 C 41.0625 33.4375 39.957031 34.277344 38.78125 34.898438 C 38.800781 35.210938 38.820312 35.539062 38.832031 35.878906 C 39.988281 35.257812 41.074219 34.429688 41.753906 33.289062 C 42.632812 31.664062 42.578125 29.777344 42.574219 27.964844 Z M 22.230469 37.503906 C 22.226562 37.96875 22.226562 38.429688 22.234375 38.894531 C 22.242188 38.992188 22.25 39.089844 22.253906 39.191406 C 22.261719 38.753906 22.269531 38.316406 22.234375 37.886719 C 22.230469 37.761719 22.230469 37.632812 22.230469 37.503906 Z M 38.851562 37.628906 C 38.8125 39.652344 38.515625 41.726562 37.503906 42.871094 C 36.605469 43.910156 35.304688 44.507812 33.96875 44.382812 C 31.289062 44.515625 28.550781 44.648438 25.917969 44.011719 C 24.664062 43.644531 23.050781 43.292969 22.640625 41.851562 C 22.367188 41.300781 22.277344 40.71875 22.253906 40.128906 C 22.234375 41.0625 22.210938 42 22.640625 42.859375 C 23.050781 44.300781 24.664062 44.652344 25.917969 45.019531 C 28.550781 45.65625 31.289062 45.523438 33.96875 45.386719 C 35.390625 45.316406 36.597656 44.894531 37.503906 43.875 C 38.683594 42.542969 38.894531 39.941406 38.851562 37.628906 Z M 38.851562 37.628906 "/>
<path style="fill:none;stroke-width:3;stroke-linecap:butt;stroke-linejoin:miter;stroke:rgb(12.941177%,12.941177%,12.941177%);stroke-opacity:1;stroke-miterlimit:4;" d="M 340.623722 -5.176287 C 340.280005 11.165902 342.061085 28.820466 333.999355 43.694046 C 328.468633 52.943163 319.625727 59.661271 310.220375 64.629547 C 311.470256 85.346318 311.907714 114.937243 300.002601 128.373459 C 293.690704 135.59152 285.753962 139.559891 271.692805 140.466055 C 250.288599 141.5597 228.38444 142.590852 207.323952 137.528835 C 197.293659 134.591616 184.388642 131.779384 181.107705 120.217988 C 176.170677 110.343931 178.732932 99.157499 177.858015 88.533514 C 177.07684 44.318986 183.732454 0.385682 191.10675 -43.078918 C 188.169531 -46.047384 173.889644 -41.672802 173.889644 -52.26554 C 173.889644 -62.827032 198.481046 -74.294687 211.32357 -75.075862 C 231.63413 -79.481691 252.78836 -77.763105 273.161414 -74.919627 C 284.754057 -70.357563 297.127876 -73.169794 308.939248 -70.795021 C 341.279909 -59.264872 340.404993 -34.142271 340.623722 -5.176287 Z M 317.50093 12.165807 C 316.751002 -4.613841 319.125775 -19.674903 312.470161 -34.111024 C 306.220757 -43.485129 295.596772 -46.953548 300.065095 -27.955362 C 303.533514 -5.207534 305.2521 17.79027 307.376897 40.694332 C 317.375942 35.038623 316.657261 22.008617 317.50093 12.165807 Z M 317.50093 12.165807 " transform="matrix(0.125012,0,0,0.125012,0,26.877566)"/>
</g>
</svg>
